app/assets/images/ralph.svg

<?xml version="1.0" encoding="UTF-8" standalone="no"?>
<svg width="68px" height="68px" viewBox="0 0 68 68" version="1.1" xmlns="http://www.w3.org/2000/svg" xmlns:xlink="http://www.w3.org/1999/xlink" xmlns:sketch="http://www.bohemiancoding.com/sketch/ns">
    <!-- Generator: Sketch 3.1.1 (8761) - http://www.bohemiancoding.com/sketch -->
    <title>Slice 2</title>
    <desc>Created with Sketch.</desc>
    <defs></defs>
    <g id="Page-1" stroke="none" stroke-width="1" fill="none" fill-rule="evenodd" sketch:type="MSPage">
        <g id="Ralph" sketch:type="MSLayerGroup">
            <circle id="Oval-1" fill="#C32F34" sketch:type="MSShapeGroup" cx="34.0086653" cy="34.0086653" r="34.0086653"></circle>
            <path d="M24.5132214,36.8362803 L24.5132214,45.8818768 C24.9578384,46.4724602 25.2289214,47.0450308 25.2289214,47.7598584 C25.2289214,48.6502365 24.826273,49.4491482 24.1936452,49.9818544 L23.4053867,49.1942378 C23.83953,48.8677926 24.1205504,48.3481531 24.1205504,47.7621467 C24.1205504,46.7732147 23.3193104,45.9713501 22.3310184,45.9713501 C21.3427265,45.9713501 20.5414865,46.7733627 20.5414865,47.7623681 C20.5414865,48.3434286 20.8180814,48.8601889 21.2466928,49.1875197 L20.4592457,49.9748411 C19.8320022,49.4424301 19.4189539,48.6483911 19.4189539,47.7623681 C19.4189539,47.0467287 19.6408718,46.3882289 20.0834236,45.8818772 L20.0834236,31.8351464 C20.1571822,31.2940982 20.5751204,30.8566235 21.1135585,30.8566235 L46.879883,30.8597979 C47.4183948,30.8597979 47.8435612,31.2940243 47.9173198,31.8351464 L47.9173198,45.8888901 C48.2861132,46.3950199 48.5817895,47.0499768 48.5817895,47.7658381 C48.5817895,48.6511964 48.1753056,49.4457525 47.5479885,49.9782373 L46.7566323,49.1910635 C47.1853173,48.8636584 47.4599947,48.3468981 47.4599947,47.7658381 C47.4599947,46.7766847 46.6577956,45.9748201 45.6695039,45.9748201 C44.6812856,45.9748201 43.8794555,46.7766109 43.8794555,47.7658381 C43.8794555,48.3516227 44.1602546,48.8713364 44.5943241,49.198224 L43.805992,49.9864314 C43.1733642,49.4539466 42.7707155,48.6520082 42.7707155,47.7616301 C42.7707155,47.0468763 43.0571406,46.4724602 43.4875221,45.8818768 L43.4875221,36.9106805 L42.2324127,36.9106805 L42.2324127,55.9030436 L42.9707123,56.3907175 L42.9707123,57.9522202 L34.3329494,57.9522202 L34.3329494,56.3907917 L35.2923961,55.9217944 L35.2923961,50.052414 L32.7821773,50.052414 L32.7840181,55.9030436 L33.6691217,56.3907175 L33.6691217,57.9522202 L24.9562012,57.9522202 L24.9562012,56.3907175 L25.8421607,55.9042986 L25.8421607,36.8362803 L24.5132214,36.8362803 L24.5132214,36.8362803 Z M34.1224162,15.8492806 C35.9115377,15.8492806 37.5320316,16.4868024 38.5310986,17.4462227 L39.3207839,16.3209064 C38.0732052,15.2034161 36.2073005,14.4934672 34.1223423,14.4934672 C32.0318469,14.4934672 30.1616601,15.20696 28.914229,16.3293969 L29.7032499,17.4561898 C30.7015048,16.4911583 32.3273144,15.8492806 34.1224162,15.8492806 L34.1224162,15.8492806 Z M34.2073945,12.9744157 C36.1623381,12.9744157 37.9858643,13.5392149 39.3417516,14.5653037 C39.6171374,14.7736519 39.8655014,14.9955109 40.0847764,15.2284445 L40.8755691,14.0989198 C39.3362144,12.5903522 36.9219007,11.6185284 34.2073945,11.6185284 C31.427401,11.6185284 28.9625138,12.6376034 27.4296561,14.2087788 L28.2244357,15.3440622 C28.4685176,15.0686026 28.7521723,14.8075399 29.0728896,14.5652299 C30.4287031,13.5392149 32.2523032,12.9744157 34.2073945,12.9744157 L34.2073945,12.9744157 Z M34.1224162,10.216645 C37.2253419,10.216645 39.9681989,11.3471295 41.5984383,13.0659648 L42.3834723,11.9472932 C40.4824984,10.0706094 37.4891364,8.8606101 34.1224162,8.8606101 C30.7499373,8.86046245 27.752736,10.074227 25.8519837,11.9557837 L26.636427,13.076301 C28.2653375,11.3515592 31.0132887,10.216645 34.1224162,10.216645 L34.1224162,10.216645 Z M40.5284945,18.8961694 L27.4359317,18.8961694 C26.8990402,18.8961694 26.4803505,19.3384847 26.4803505,19.8775173 L26.4803505,28.4187581 C26.4803505,28.9544683 26.8990402,29.3800242 27.4359317,29.3800242 L40.5284945,29.3800242 C41.0673055,29.3800242 41.541663,28.9544683 41.541663,28.4187581 L41.541663,19.8775173 C41.541663,19.3384847 41.0673055,18.8961694 40.5284945,18.8961694 L40.5284945,18.8961694 Z M30.6466492,25.1644072 C29.7273923,25.1644072 28.981119,24.4158452 28.981119,23.4982125 C28.981119,22.5760763 29.7273923,21.8296553 30.6466492,21.8296553 C31.5670873,21.8296553 32.3133605,22.5760024 32.3133605,23.4982125 C32.3133605,24.415919 31.5670873,25.1644072 30.6466492,25.1644072 L30.6466492,25.1644072 L30.6466492,25.1644072 Z M37.3389662,25.1644072 C36.416387,25.1644072 35.6688586,24.4158452 35.6688586,23.4982125 C35.6688586,22.5760763 36.416387,21.8296553 37.3389662,21.8296553 C38.2596258,21.8296553 39.0058991,22.5760024 39.0058991,23.4982125 C39.0058991,24.415919 38.2596258,25.1644072 37.3389662,25.1644072 L37.3389662,25.1644072 L37.3389662,25.1644072 Z M31.5006403,23.4982125 C31.5006403,23.9678449 31.1192347,24.3505056 30.646723,24.3505056 C30.1776812,24.3505056 29.7950943,23.9678449 29.7950943,23.4982125 C29.7950943,23.0240765 30.1776812,22.6438522 30.646723,22.6438522 C31.1192347,22.6438522 31.5006403,23.0240765 31.5006403,23.4982125 L31.5006403,23.4982125 L31.5006403,23.4982125 Z M37.3389662,24.3505056 C36.8677834,24.3505056 36.4861563,23.9678449 36.4861563,23.4982125 C36.4861563,23.0240765 36.8677834,22.6438522 37.3389662,22.6438522 C37.8082294,22.6438522 38.1950984,23.0240765 38.1950984,23.4982125 C38.1950984,23.9678449 37.8082294,24.3505056 37.3389662,24.3505056 L37.3389662,24.3505056 Z" fill="#FFFFFF" sketch:type="MSShapeGroup"></path>
        </g>
    </g>
</svg>

<svg width="68" height="68" viewBox="0 0 68 68" xmlns="http://www.w3.org/2000/svg">
    <title>
        Slice 2
    </title>
    <desc>
        Created with Sketch.
    </desc>
    <g fill="none" fill-rule="evenodd">
        <g>
            <circle fill="#C32F34" cx="34.009" cy="34.009" r="34.009"/>
            <path d="M24.513 36.836v9.046c.445.59.716 1.163.716 1.878 0 .89-.404 1.69-1.036 2.222l-.79-.788c.436-.326.717-.846.717-1.432 0-.99-.8-1.79-1.79-1.79-.987 0-1.79.8-1.79 1.79 0 .58.278 1.098.707 1.426l-.788.787c-.628-.533-1.04-1.327-1.04-2.213 0-.715.22-1.374.663-1.88V31.835c.074-.54.492-.978 1.03-.978l25.767.003c.538 0 .964.434 1.037.975V45.89c.37.505.665 1.16.665 1.876 0 .885-.407 1.68-1.034 2.212l-.79-.787c.427-.326.702-.843.702-1.424 0-.99-.802-1.79-1.79-1.79-.99 0-1.79.8-1.79 1.79 0 .586.28 1.105.714 1.432l-.788.788c-.633-.532-1.035-1.334-1.035-2.224 0-.715.287-1.29.718-1.88v-8.97h-1.256V55.9l.74.49v1.56h-8.64v-1.56l.96-.47v-5.87h-2.51l.002 5.85.885.49v1.56h-8.714v-1.56l.886-.488V36.836h-1.33zm9.61-20.987c1.79 0 3.41.637 4.408 1.596l.79-1.125c-1.247-1.117-3.113-1.827-5.198-1.827-2.09 0-3.96.714-5.208 1.836l.79 1.126c.998-.965 2.623-1.607 4.418-1.607zm.084-2.876c1.955 0 3.78.565 5.135 1.59.275.21.524.432.743.664l.79-1.13c-1.54-1.508-3.953-2.48-6.668-2.48-2.78 0-5.244 1.02-6.777 2.59l.794 1.136c.245-.275.528-.536.85-.78 1.355-1.025 3.178-1.59 5.133-1.59zm-.085-2.757c3.103 0 5.846 1.13 7.476 2.85l.785-1.12c-1.9-1.876-4.894-3.086-8.26-3.086-3.373 0-6.37 1.214-8.27 3.096l.783 1.12c1.63-1.724 4.377-2.86 7.486-2.86zm6.406 8.68H27.436c-.537 0-.956.44-.956.98v8.542c0 .534.42.96.956.96h13.092c.54 0 1.014-.426 1.014-.96v-8.542c0-.54-.475-.982-1.014-.982zm-9.88 6.267c-.92 0-1.667-.748-1.667-1.666 0-.922.747-1.668 1.667-1.668s1.666.746 1.666 1.668c0 .918-.746 1.666-1.666 1.666zm6.69 0c-.922 0-1.67-.748-1.67-1.666 0-.922.748-1.668 1.67-1.668.922 0 1.668.746 1.668 1.668 0 .918-.746 1.666-1.667 1.666zm-5.837-1.666c0 .47-.38.853-.853.853-.47 0-.852-.382-.852-.852 0-.474.383-.854.852-.854.472 0 .854.38.854.854zm5.84.853c-.472 0-.854-.382-.854-.852 0-.474.382-.854.853-.854.468 0 .855.38.855.854 0 .47-.387.853-.856.853z" fill="#fff"/>
        </g>
    </g>
</svg>
